X:1
T:Christ Is Near Me
T:Christ Is Near Me
T:Anthony Johnson Showalter
T:Ruth Adalyn Hearn Evilsizer, 1904
T:Public Domain Courtesy of the Cyber Hymnal™
C:Anthony Johnson Showalter
Z:Public Domain
Z:Courtesy of the Cyber Hymnal™
%%score ( 1 2 ) ( 3 4 )
L:1/8
Q:1/4=102
M:4/4
K:Ab
V:1 treble 
V:2 treble 
V:3 bass 
V:4 bass 
V:1
 [Cc]3 [CG] [CB][CA][CE][EA] | [EG]2 [DF]4 z2 | [Fd]3 [DF] [Ec][DB][DG][DE] | (F2 E4) z2 | %4
w: 1.~When the waves of time sweep|o’er me,|I shall ne- ver be dis-|mayed, *|
w: 2.~When the cares of life sur-|round me,|Christ each hea- vy bur- den|bears; *|
w: 3.~When the way seems rough and|drea- ry,|Je- sus gent- ly takes my|hand, *|
 [Cc]3 [CG] [CB][CA][CE][EA] | [EG]2 [DF]4 [=B,G]>[B,A] | [CE]3 [Ec] [Ed]2 [DG]2 | [CA]6 || %8
w: For my Sav- ior goes be-|fore me, And He|says, “Be not af-|raid.”|
w: Since thro’ love He sought and|found me, Ev- ery|grief He free- ly|shares.|
w: And He whis- pers, “Come, ye|wea- ry, Just be-|yond is Beu- lah|Land.”|
"^Refrain" (3([Ec][DB])[CA] | [CE]2 [Ec]4 (3([Ec][DB])[CA] | [DF]2 [Fd]4 (3([DF][EG])[FA] | %11
w: |||
w: Christ * is|near me, He * will|cheer me, What- * so-|
w: |||
 E3 [CA] [=DA]2 (Bc) | [EB]6 (3([Ec][DB])[CA] x | E2 [Ee]4 (3([Ec][DB])[CA] x | %14
w: |||
w: e’er my lot may *|be; He * will|guide me, keep * and|
w: |||
 F2 [Ff]4 (3(FG)[FA] | E2 e4- z2 e[Ec] | [=DB]2 [_DB]2 [CA]4 |] %17
w: |||
w: hide me, ’Neath * His|wings, ’neath * His|wings e- ter-|
w: |||
V:2
 x8 | x8 | x8 | C6 x2 | x8 | x8 | x8 | x6 || x2 | x8 | x8 | E3 =D2 x3 | x9 | E2 x7 | F2 x2 F2 x2 | %15
 E2 A>A A3 x3 | x8 |] %17
V:3
 [A,,E,]3 [A,,E,] [A,,E,][A,,E,][A,,A,][C,A,] | [D,A,]2 [D,A,]4 z2 | %2
 [B,,B,]3 [B,,B,] [E,A,][E,G,][E,B,][E,G,] | [A,,A,]6 z2 | %4
 [A,,E,]3 [A,,E,] [A,,E,][A,,E,][A,,A,][C,A,] | [D,A,]2 [D,A,]4 [=D,A,]>[D,A,] | %6
 [E,A,]3 [E,A,] [E,G,]2 [E,B,]2 | [A,,A,]6 || (3:2:2[A,,A,]2 [A,,A,] | %9
 [A,,A,]2 [A,,A,]4 (3:2:2[A,,A,]2 [A,,A,] | [D,A,]2 [D,A,]4 (3:2:2[D,A,]2 [D,A,] | %11
 [C,A,]3 [A,,A,] [B,,F,]2 [B,,A,]2 | [E,G,]6 A,2 A, | [A,C]2 [A,C]4 A,2 A, | %14
 [D,A,]2 [D,A,]4 (3:2:2[=D,=B,]2 [D,B,] | C2 C>C [E,C]3 [E,A,] x2 | [E,F,]2 [E,G,]2 [A,,A,]4 |] %17
V:4
 x8 | x8 | x8 | x8 | x8 | x8 | x8 | x6 || x2 | x8 | x8 | x8 | x6 (3:2:2A,2 A, x | %13
 x6 (3:2:2A,2 A, x | x8 | E,4- x6 | x8 |] %17

